X: 062
M: C
L: 1/8
K: C
V: 1
E>FGc AFDd | ecgc (B/c/d/c/) BG | EGcB Ad (f/e/d/c/) | Bg GA/B/ cdc :|
e/f/ |\
g<e {fg}a>f ge cd/e/ | fdec (B/c/d/B/) Ge/f/ | g<efa g<ece | fd (c/B/d/B/) c2ce |
fdBg ecAf | dfBd ceGc | Ad {f}ed/c/ Bd {g}fe/d/ | eg (f/d/c/B/) | cdc |]
V: 2 clef=bass middle=d
z |\
c2c2 c2B2 | c2c2 g2G2 | c3B A2f^f | g2G2 c2C :|
z |\
c'2c'2 c'2c2 | g2c2 G2g2 | c2f2 e2c2 | g2G2 c2Cz |
g2G2 c2f2 | g2G2 c2c2 | f2c2 G2B2 | c2G2 C2c |]


